!!!OTL: STUND ICH AUF HOHEN BERGEN
!!!ARE: Europa, Mitteleuropa, Deutschland, Schwaben
!!!SCT: E0089A
!!!YEM: Copyright 1995, estate of Helmut Schaffrath.
**kern
*ICvox
*Ivox
*M2/4
*k[b-]
*d:
{16fn
16g
=1
8.a
16g
8fn
8e
=2
8d
16fn
16g
8a}
{8a
=3
8b-
8b-
8g
8g
=4
4a
8r}
{8a
=5
8.a
16b-
8ccn
8a
=6
8g
16fn
16g
8a}
{8g
=7
8.fn
16g
8a
8fn
=8
8e
16d
16e
8fn}
{8a
=9
8dd
8fn
16g
16a
16fn
16e
=10
4d}
{4a
=11
8dd
8fn
16g
16a
16fn
16e
=12
4d
8r}
==
!!!AGN: erzaehlendes Volks - Lied, Sage, Liebe, Leid, Ballade ?
!!!ONB: ESAC (Essen Associative Code) Database: ERK1
!!!AMT: simple duple
!!!AIN: vox
!!!EED: Helmut Schaffrath
!!!EEV: 1.0
*-
